lib/assets/svg/button/vi_add_to_google_wallet_wallet-button.svg

<svg fill="none" height="50" viewBox="0 0 271 50" width="271" xmlns="http://www.w3.org/2000/svg" xmlns:xlink="http://www.w3.org/1999/xlink"><linearGradient id="a" gradientUnits="userSpaceOnUse" x1="34.5703" x2="18.7309" y1="30.7864" y2="48.9133"><stop offset="0" stop-color="#4285f4"/><stop offset="1" stop-color="#1b74e8"/></linearGradient><rect fill="#1f1f1f" height="49" rx="24.5" width="270" x=".5" y=".5"/><path d="m51 22h-30v-5c0-2.7143 2.2018-5 4.8165-5h20.367c2.6147 0 4.8165 2.2857 4.8165 5z" fill="#34a853"/><path d="m51 26.0537h-30v-5c0-2.7143 2.2018-5 4.8165-5h20.367c2.6147 0 4.8165 2.2857 4.8165 5z" fill="#fbbc04"/><path d="m51 30.2468h-30v-5c0-2.7143 2.2018-5 4.8165-5h20.367c2.6147 0 4.8165 2.2857 4.8165 5z" fill="#ea4335"/><path d="m21 23.2752 19.0411 4.4037c2.1918.5505 4.6575 0 6.4384-1.3761l4.5205-3.3028v10.3211c0 2.6147-2.1918 4.6789-4.7945 4.6789h-20.411c-2.6027 0-4.7945-2.0642-4.7945-4.6789z" fill="url(#a)"/><path d="m67.54 32v-12.24h-4.02v-2.08h10.2v2.08h-4v12.24zm8.1458 0v-14.32h2.16v3.92l-.12 1.6h.12c.28-.4933.7066-.9 1.28-1.22.5866-.3333 1.2333-.5 1.94-.5 1.2666 0 2.22.38 2.86 1.14.64.7467.96 1.7267.96 2.94v6.44h-2.14v-6.16c0-.8267-.22-1.4267-.66-1.8-.4267-.3867-.9534-.58-1.58-.58-.52 0-.98.1467-1.38.44s-.7134.68-.94 1.16c-.2267.4667-.34.9667-.34 1.5v5.44zm16.3201.32c-1 0-1.8933-.2333-2.68-.7-.7866-.4667-1.4066-1.1067-1.86-1.92-.44-.8133-.66-1.74-.66-2.78 0-.9733.2134-1.8733.64-2.7.4267-.8267 1.02-1.4867 1.78-1.98.7734-.5067 1.66-.76 2.66-.76 1.0534 0 1.9467.2267 2.68.68.7467.4533 1.3134 1.0733 1.7 1.86.3867.7867.58 1.6733.58 2.66 0 .1467-.0066.28-.02.4 0 .12-.0066.2133-.02.28h-7.88c.1067 1.0133.46 1.7733 1.06 2.28.6134.5067 1.3067.76 2.08.76.6934 0 1.2667-.1533 1.72-.46.4534-.32.8134-.7133 1.08-1.18l1.78.86c-.44.8-1.04 1.4533-1.8 1.96-.76.4933-1.7066.74-2.84.74zm-.1-9c-.72 0-1.3333.22-1.84.66-.5066.44-.8466 1.0267-1.02 1.76h5.66c-.0266-.3467-.14-.7067-.34-1.08s-.5066-.6867-.92-.94c-.4-.2667-.9133-.4-1.54-.4zm-3.1-3.48v-.14l2.14-2.42h1.9l2.16 2.42v.14h-2.08l-.94-1.24h-.2l-.92 1.24zm10.0439 12.16v-10.2h2.0402v1.4h.12c.293-.4933.72-.9 1.28-1.22.56-.3333 1.18-.5 1.86-.5.76 0 1.407.18 1.94.54s.913.8133 1.14 1.36c.333-.5333.787-.98 1.36-1.34.573-.3733 1.273-.56 2.1-.56 1.2 0 2.093.3667 2.68 1.1.587.72.88 1.68.88 2.88v6.54h-2.14v-6.18c0-.8133-.18-1.4067-.54-1.78-.347-.3867-.833-.58-1.46-.58-.493 0-.927.14-1.3.42-.373.2667-.667.6333-.88 1.1-.2.4667-.3.9867-.3 1.56v5.46h-2.14v-6.18c0-.8133-.18-1.4067-.54-1.78-.36-.3867-.867-.58-1.52-.58-.48 0-.9.14-1.26.42s-.647.6533-.86 1.12c-.2.4667-.3.9867-.3 1.56v5.44zm25.6002 0-4.22-10.2h2.4l2.86 7.42h.1l2.92-7.42h2.36l-4.26 10.2zm10.823.32c-.734 0-1.387-.14-1.961-.42-.573-.2933-1.019-.7-1.339-1.22s-.48-1.1133-.48-1.78c0-.72.186-1.3333.56-1.84.386-.52.9-.9133 1.54-1.18s1.346-.4 2.12-.4c.64 0 1.2.06 1.68.18.493.12.866.2467 1.12.38v-.54c0-.6667-.24-1.2-.72-1.6s-1.1-.6-1.86-.6c-.52 0-1.014.12-1.48.36-.467.2267-.84.54-1.12.94l-1.48-1.14c.44-.6133 1.02-1.0933 1.74-1.44.733-.36 1.533-.54 2.4-.54 1.48 0 2.62.3667 3.42 1.1.8.72 1.2 1.7333 1.2 3.04v6.38h-2.1v-1.26h-.12c-.267.4133-.667.78-1.2 1.1-.534.32-1.174.48-1.92.48zm.38-1.76c.56 0 1.053-.1333 1.48-.4.426-.2667.76-.6133 1-1.04.253-.44.38-.9133.38-1.42-.307-.1733-.667-.3133-1.08-.42-.414-.12-.854-.18-1.32-.18-.88 0-1.507.18-1.88.54-.374.3467-.56.7733-.56 1.28 0 .48.18.8733.54 1.18s.84.46 1.44.46zm-.46-10.72-1.6-2.56h2.46l.94 2.56zm12.5 12.48c-1.054 0-1.98-.24-2.78-.72s-1.427-1.1267-1.88-1.94c-.454-.8133-.68-1.7333-.68-2.76 0-1.0133.226-1.9267.68-2.74.453-.8267 1.08-1.48 1.88-1.96s1.726-.72 2.78-.72c1.04 0 1.96.24 2.76.72s1.426 1.1333 1.88 1.96c.453.8133.68 1.7267.68 2.74 0 1.0267-.227 1.9467-.68 2.76-.454.8133-1.08 1.46-1.88 1.94s-1.72.72-2.76.72zm0-1.98c.56 0 1.08-.1333 1.56-.4.48-.28.866-.6733 1.16-1.18.306-.52.46-1.14.46-1.86s-.154-1.3333-.46-1.84c-.294-.52-.68-.9133-1.16-1.18-.48-.28-1-.42-1.56-.42s-1.087.14-1.58.42c-.48.2667-.874.66-1.18 1.18-.294.5067-.44 1.12-.44 1.84s.146 1.34.44 1.86c.306.5067.7.9 1.18 1.18.493.2667 1.02.4 1.58.4z" fill="#fff"/><path d="m164.36 32-5.08-14.32h2.4l3.24 9.52.5 1.62h.12l.54-1.62 3.38-9.52h2.4l-5.22 14.32zm8.814 0v-10.2h2.16v10.2zm.2-12.16.94-2.56h2.44l-1.6 2.56zm16.057 12.48c-1.026 0-1.993-.1867-2.9-.56-.893-.3733-1.686-.8933-2.38-1.56-.693-.68-1.24-1.4733-1.64-2.38-.386-.92-.58-1.9133-.58-2.98s.194-2.0533.58-2.96c.4-.92.94-1.7133 1.62-2.38.694-.68 1.494-1.2067 2.4-1.58.907-.3733 1.874-.56 2.9-.56 1.094 0 2.1.1933 3.02.58.934.3867 1.714.9267 2.34 1.62l-1.52 1.5c-.466-.52-1.026-.92-1.68-1.2-.64-.28-1.36-.42-2.16-.42-.946 0-1.82.2267-2.62.68-.8.44-1.446 1.0667-1.94 1.88-.48.8-.72 1.7467-.72 2.84s.247 2.0467.74 2.86c.494.8 1.14 1.4267 1.94 1.88.8.44 1.674.66 2.62.66.867 0 1.654-.16 2.36-.48.707-.3333 1.274-.8 1.7-1.4.44-.6.707-1.32.8-2.16h-4.9v-1.94h6.96c.08.36.12.74.12 1.14v.02c0 1.3867-.306 2.6-.92 3.64-.6 1.0267-1.433 1.8267-2.5 2.4-1.066.5733-2.28.86-3.64.86zm13.5 0c-1.053 0-1.98-.24-2.78-.72s-1.427-1.1267-1.88-1.94-.68-1.7333-.68-2.76c0-1.0133.227-1.9267.68-2.74.453-.8267 1.08-1.48 1.88-1.96s1.727-.72 2.78-.72c1.04 0 1.96.24 2.76.72s1.427 1.1333 1.88 1.96c.453.8133.68 1.7267.68 2.74 0 1.0267-.227 1.9467-.68 2.76s-1.08 1.46-1.88 1.94-1.72.72-2.76.72zm0-1.98c.56 0 1.08-.1333 1.56-.4.48-.28.867-.6733 1.16-1.18.307-.52.46-1.14.46-1.86s-.153-1.3333-.46-1.84c-.293-.52-.68-.9133-1.16-1.18-.48-.28-1-.42-1.56-.42s-1.087.14-1.58.42c-.48.2667-.873.66-1.18 1.18-.293.5067-.44 1.12-.44 1.84s.147 1.34.44 1.86c.307.5067.7.9 1.18 1.18.493.2667 1.02.4 1.58.4zm12.109 1.98c-1.053 0-1.98-.24-2.78-.72s-1.426-1.1267-1.88-1.94c-.453-.8133-.68-1.7333-.68-2.76 0-1.0133.227-1.9267.68-2.74.454-.8267 1.08-1.48 1.88-1.96s1.727-.72 2.78-.72c1.04 0 1.96.24 2.76.72s1.427 1.1333 1.88 1.96c.454.8133.68 1.7267.68 2.74 0 1.0267-.226 1.9467-.68 2.76-.453.8133-1.08 1.46-1.88 1.94s-1.72.72-2.76.72zm0-1.98c.56 0 1.08-.1333 1.56-.4.48-.28.867-.6733 1.16-1.18.307-.52.46-1.14.46-1.86s-.153-1.3333-.46-1.84c-.293-.52-.68-.9133-1.16-1.18-.48-.28-1-.42-1.56-.42s-1.086.14-1.58.42c-.48.2667-.873.66-1.18 1.18-.293.5067-.44 1.12-.44 1.84s.147 1.34.44 1.86c.307.5067.7.9 1.18 1.18.494.2667 1.02.4 1.58.4zm11.91 6.3c-.893 0-1.667-.1467-2.32-.44-.64-.28-1.16-.6467-1.56-1.1-.4-.44-.687-.8933-.86-1.36l2-.84c.213.5333.553.9667 1.02 1.3.48.3467 1.053.52 1.72.52.933 0 1.667-.28 2.2-.84.547-.56.82-1.3533.82-2.38v-.98h-.12c-.32.48-.767.8667-1.34 1.16-.56.28-1.2.42-1.92.42-.867 0-1.66-.22-2.38-.66s-1.3-1.0533-1.74-1.84c-.44-.8-.66-1.7333-.66-2.8 0-1.08.22-2.0133.66-2.8.44-.8 1.02-1.42 1.74-1.86s1.513-.66 2.38-.66c.72 0 1.36.1467 1.92.44.573.2933 1.02.68 1.34 1.16h.12v-1.28h2.06v9.66c0 1.1067-.22 2.0467-.66 2.82-.427.7733-1.02 1.36-1.78 1.76s-1.64.6-2.64.6zm.02-6.5c.533 0 1.027-.1267 1.48-.38.453-.2667.82-.6467 1.1-1.14.28-.5067.42-1.1133.42-1.82 0-.7333-.14-1.3467-.42-1.84-.28-.5067-.647-.8867-1.1-1.14s-.947-.38-1.48-.38-1.033.1333-1.5.4c-.453.2533-.82.6267-1.1 1.12s-.42 1.1067-.42 1.84c0 .72.14 1.3333.42 1.84.28.4933.647.8667 1.1 1.12.467.2533.967.38 1.5.38zm7.607 1.86v-14.32h2.16v14.32zm9.269.32c-1 0-1.894-.2333-2.68-.7-.787-.4667-1.407-1.1067-1.86-1.92-.44-.8133-.66-1.74-.66-2.78 0-.9733.213-1.8733.64-2.7.426-.8267 1.02-1.4867 1.78-1.98.773-.5067 1.66-.76 2.66-.76 1.053 0 1.946.2267 2.68.68.746.4533 1.313 1.0733 1.7 1.86.386.7867.58 1.6733.58 2.66 0 .1467-.007.28-.02.4 0 .12-.007.2133-.02.28h-7.88c.106 1.0133.46 1.7733 1.06 2.28.613.5067 1.306.76 2.08.76.693 0 1.266-.1533 1.72-.46.453-.32.813-.7133 1.08-1.18l1.78.86c-.44.8-1.04 1.4533-1.8 1.96-.76.4933-1.707.74-2.84.74zm-.1-9c-.72 0-1.334.22-1.84.66-.507.44-.847 1.0267-1.02 1.76h5.66c-.027-.3467-.14-.7067-.34-1.08s-.507-.6867-.92-.94c-.4-.2667-.914-.4-1.54-.4z" fill="#fff"/><rect height="49" rx="24.5" stroke="#747775" width="270" x=".5" y=".5"/></svg>

<svg width="271" height="50" viewBox="0 0 271 50" fill="none" xmlns="http://www.w3.org/2000/svg">
<rect x="0.5" y="0.5" width="270" height="49" rx="24.5" fill="#1F1F1F"/>
<path d="M51 22H21V17C21 14.2857 23.2018 12 25.8165 12H46.1835C48.7982 12 51 14.2857 51 17V22Z" fill="#34A853"/>
<path d="M51 26.0537H21V21.0537C21 18.3394 23.2018 16.0537 25.8165 16.0537H46.1835C48.7982 16.0537 51 18.3394 51 21.0537V26.0537Z" fill="#FBBC04"/>
<path d="M51 30.2468H21V25.2468C21 22.5325 23.2018 20.2468 25.8165 20.2468H46.1835C48.7982 20.2468 51 22.5325 51 25.2468V30.2468Z" fill="#EA4335"/>
<path d="M21 23.2752L40.0411 27.6789C42.2329 28.2294 44.6986 27.6789 46.4795 26.3028L51 23V33.3211C51 35.9358 48.8082 38 46.2055 38H25.7945C23.1918 38 21 35.9358 21 33.3211V23.2752Z" fill="url(#paint0_linear_1819_24937)"/>
<path d="M67.54 32V19.76H63.52V17.68H73.72V19.76H69.72V32H67.54ZM75.6858 32V17.68H77.8458V21.6L77.7258 23.2H77.8458C78.1258 22.7067 78.5524 22.3 79.1258 21.98C79.7124 21.6467 80.3591 21.48 81.0658 21.48C82.3324 21.48 83.2858 21.86 83.9258 22.62C84.5658 23.3667 84.8858 24.3467 84.8858 25.56V32H82.7458V25.84C82.7458 25.0133 82.5258 24.4133 82.0858 24.04C81.6591 23.6533 81.1324 23.46 80.5058 23.46C79.9858 23.46 79.5258 23.6067 79.1258 23.9C78.7258 24.1933 78.4124 24.58 78.1858 25.06C77.9591 25.5267 77.8458 26.0267 77.8458 26.56V32H75.6858ZM92.0059 32.32C91.0059 32.32 90.1126 32.0867 89.3259 31.62C88.5393 31.1533 87.9193 30.5133 87.4659 29.7C87.0259 28.8867 86.8059 27.96 86.8059 26.92C86.8059 25.9467 87.0193 25.0467 87.4459 24.22C87.8726 23.3933 88.4659 22.7333 89.2259 22.24C89.9993 21.7333 90.8859 21.48 91.8859 21.48C92.9393 21.48 93.8326 21.7067 94.5659 22.16C95.3126 22.6133 95.8793 23.2333 96.2659 24.02C96.6526 24.8067 96.8459 25.6933 96.8459 26.68C96.8459 26.8267 96.8393 26.96 96.8259 27.08C96.8259 27.2 96.8193 27.2933 96.8059 27.36H88.9259C89.0326 28.3733 89.3859 29.1333 89.9859 29.64C90.5993 30.1467 91.2926 30.4 92.0659 30.4C92.7593 30.4 93.3326 30.2467 93.7859 29.94C94.2393 29.62 94.5993 29.2267 94.8659 28.76L96.6459 29.62C96.2059 30.42 95.6059 31.0733 94.8459 31.58C94.0859 32.0733 93.1393 32.32 92.0059 32.32ZM91.9059 23.32C91.1859 23.32 90.5726 23.54 90.0659 23.98C89.5593 24.42 89.2193 25.0067 89.0459 25.74H94.7059C94.6793 25.3933 94.5659 25.0333 94.3659 24.66C94.1659 24.2867 93.8593 23.9733 93.4459 23.72C93.0459 23.4533 92.5326 23.32 91.9059 23.32ZM88.8059 19.84V19.7L90.9459 17.28H92.8459L95.0059 19.7V19.84H92.9259L91.9859 18.6H91.7859L90.8659 19.84H88.8059ZM98.8498 32V21.8H100.89V23.2H101.01C101.303 22.7067 101.73 22.3 102.29 21.98C102.85 21.6467 103.47 21.48 104.15 21.48C104.91 21.48 105.557 21.66 106.09 22.02C106.623 22.38 107.003 22.8333 107.23 23.38C107.563 22.8467 108.017 22.4 108.59 22.04C109.163 21.6667 109.863 21.48 110.69 21.48C111.89 21.48 112.783 21.8467 113.37 22.58C113.957 23.3 114.25 24.26 114.25 25.46V32H112.11V25.82C112.11 25.0067 111.93 24.4133 111.57 24.04C111.223 23.6533 110.737 23.46 110.11 23.46C109.617 23.46 109.183 23.6 108.81 23.88C108.437 24.1467 108.143 24.5133 107.93 24.98C107.73 25.4467 107.63 25.9667 107.63 26.54V32H105.49V25.82C105.49 25.0067 105.31 24.4133 104.95 24.04C104.59 23.6533 104.083 23.46 103.43 23.46C102.95 23.46 102.53 23.6 102.17 23.88C101.81 24.16 101.523 24.5333 101.31 25C101.11 25.4667 101.01 25.9867 101.01 26.56V32H98.8498ZM124.45 32L120.23 21.8H122.63L125.49 29.22H125.59L128.51 21.8H130.87L126.61 32H124.45ZM135.273 32.32C134.539 32.32 133.886 32.18 133.312 31.9C132.739 31.6067 132.293 31.2 131.973 30.68C131.653 30.16 131.493 29.5667 131.493 28.9C131.493 28.18 131.679 27.5667 132.053 27.06C132.439 26.54 132.953 26.1467 133.593 25.88C134.233 25.6133 134.939 25.48 135.713 25.48C136.353 25.48 136.913 25.54 137.393 25.66C137.886 25.78 138.259 25.9067 138.513 26.04V25.5C138.513 24.8333 138.273 24.3 137.793 23.9C137.313 23.5 136.693 23.3 135.933 23.3C135.413 23.3 134.919 23.42 134.453 23.66C133.986 23.8867 133.613 24.2 133.333 24.6L131.853 23.46C132.293 22.8467 132.873 22.3667 133.593 22.02C134.326 21.66 135.126 21.48 135.993 21.48C137.473 21.48 138.613 21.8467 139.413 22.58C140.213 23.3 140.613 24.3133 140.613 25.62V32H138.513V30.74H138.393C138.126 31.1533 137.726 31.52 137.193 31.84C136.659 32.16 136.019 32.32 135.273 32.32ZM135.653 30.56C136.213 30.56 136.706 30.4267 137.133 30.16C137.559 29.8933 137.893 29.5467 138.133 29.12C138.386 28.68 138.513 28.2067 138.513 27.7C138.206 27.5267 137.846 27.3867 137.433 27.28C137.019 27.16 136.579 27.1 136.113 27.1C135.233 27.1 134.606 27.28 134.233 27.64C133.859 27.9867 133.673 28.4133 133.673 28.92C133.673 29.4 133.853 29.7933 134.213 30.1C134.573 30.4067 135.053 30.56 135.653 30.56ZM135.193 19.84L133.593 17.28H136.053L136.993 19.84H135.193ZM147.693 32.32C146.639 32.32 145.713 32.08 144.913 31.6C144.113 31.12 143.486 30.4733 143.033 29.66C142.579 28.8467 142.353 27.9267 142.353 26.9C142.353 25.8867 142.579 24.9733 143.033 24.16C143.486 23.3333 144.113 22.68 144.913 22.2C145.713 21.72 146.639 21.48 147.693 21.48C148.733 21.48 149.653 21.72 150.453 22.2C151.253 22.68 151.879 23.3333 152.333 24.16C152.786 24.9733 153.013 25.8867 153.013 26.9C153.013 27.9267 152.786 28.8467 152.333 29.66C151.879 30.4733 151.253 31.12 150.453 31.6C149.653 32.08 148.733 32.32 147.693 32.32ZM147.693 30.34C148.253 30.34 148.773 30.2067 149.253 29.94C149.733 29.66 150.119 29.2667 150.413 28.76C150.719 28.24 150.873 27.62 150.873 26.9C150.873 26.18 150.719 25.5667 150.413 25.06C150.119 24.54 149.733 24.1467 149.253 23.88C148.773 23.6 148.253 23.46 147.693 23.46C147.133 23.46 146.606 23.6 146.113 23.88C145.633 24.1467 145.239 24.54 144.933 25.06C144.639 25.5667 144.493 26.18 144.493 26.9C144.493 27.62 144.639 28.24 144.933 28.76C145.239 29.2667 145.633 29.66 146.113 29.94C146.606 30.2067 147.133 30.34 147.693 30.34Z" fill="white"/>
<path d="M164.36 32L159.28 17.68H161.68L164.92 27.2L165.42 28.82H165.54L166.08 27.2L169.46 17.68H171.86L166.64 32H164.36ZM173.174 32V21.8H175.334V32H173.174ZM173.374 19.84L174.314 17.28H176.754L175.154 19.84H173.374ZM189.431 32.32C188.405 32.32 187.438 32.1333 186.531 31.76C185.638 31.3867 184.845 30.8667 184.151 30.2C183.458 29.52 182.911 28.7267 182.511 27.82C182.125 26.9 181.931 25.9067 181.931 24.84C181.931 23.7733 182.125 22.7867 182.511 21.88C182.911 20.96 183.451 20.1667 184.131 19.5C184.825 18.82 185.625 18.2933 186.531 17.92C187.438 17.5467 188.405 17.36 189.431 17.36C190.525 17.36 191.531 17.5533 192.451 17.94C193.385 18.3267 194.165 18.8667 194.791 19.56L193.271 21.06C192.805 20.54 192.245 20.14 191.591 19.86C190.951 19.58 190.231 19.44 189.431 19.44C188.485 19.44 187.611 19.6667 186.811 20.12C186.011 20.56 185.365 21.1867 184.871 22C184.391 22.8 184.151 23.7467 184.151 24.84C184.151 25.9333 184.398 26.8867 184.891 27.7C185.385 28.5 186.031 29.1267 186.831 29.58C187.631 30.02 188.505 30.24 189.451 30.24C190.318 30.24 191.105 30.08 191.811 29.76C192.518 29.4267 193.085 28.96 193.511 28.36C193.951 27.76 194.218 27.04 194.311 26.2H189.411V24.26H196.371C196.451 24.62 196.491 25 196.491 25.4V25.42C196.491 26.8067 196.185 28.02 195.571 29.06C194.971 30.0867 194.138 30.8867 193.071 31.46C192.005 32.0333 190.791 32.32 189.431 32.32ZM202.931 32.32C201.878 32.32 200.951 32.08 200.151 31.6C199.351 31.12 198.724 30.4733 198.271 29.66C197.818 28.8467 197.591 27.9267 197.591 26.9C197.591 25.8867 197.818 24.9733 198.271 24.16C198.724 23.3333 199.351 22.68 200.151 22.2C200.951 21.72 201.878 21.48 202.931 21.48C203.971 21.48 204.891 21.72 205.691 22.2C206.491 22.68 207.118 23.3333 207.571 24.16C208.024 24.9733 208.251 25.8867 208.251 26.9C208.251 27.9267 208.024 28.8467 207.571 29.66C207.118 30.4733 206.491 31.12 205.691 31.6C204.891 32.08 203.971 32.32 202.931 32.32ZM202.931 30.34C203.491 30.34 204.011 30.2067 204.491 29.94C204.971 29.66 205.358 29.2667 205.651 28.76C205.958 28.24 206.111 27.62 206.111 26.9C206.111 26.18 205.958 25.5667 205.651 25.06C205.358 24.54 204.971 24.1467 204.491 23.88C204.011 23.6 203.491 23.46 202.931 23.46C202.371 23.46 201.844 23.6 201.351 23.88C200.871 24.1467 200.478 24.54 200.171 25.06C199.878 25.5667 199.731 26.18 199.731 26.9C199.731 27.62 199.878 28.24 200.171 28.76C200.478 29.2667 200.871 29.66 201.351 29.94C201.844 30.2067 202.371 30.34 202.931 30.34ZM215.04 32.32C213.987 32.32 213.06 32.08 212.26 31.6C211.46 31.12 210.834 30.4733 210.38 29.66C209.927 28.8467 209.7 27.9267 209.7 26.9C209.7 25.8867 209.927 24.9733 210.38 24.16C210.834 23.3333 211.46 22.68 212.26 22.2C213.06 21.72 213.987 21.48 215.04 21.48C216.08 21.48 217 21.72 217.8 22.2C218.6 22.68 219.227 23.3333 219.68 24.16C220.134 24.9733 220.36 25.8867 220.36 26.9C220.36 27.9267 220.134 28.8467 219.68 29.66C219.227 30.4733 218.6 31.12 217.8 31.6C217 32.08 216.08 32.32 215.04 32.32ZM215.04 30.34C215.6 30.34 216.12 30.2067 216.6 29.94C217.08 29.66 217.467 29.2667 217.76 28.76C218.067 28.24 218.22 27.62 218.22 26.9C218.22 26.18 218.067 25.5667 217.76 25.06C217.467 24.54 217.08 24.1467 216.6 23.88C216.12 23.6 215.6 23.46 215.04 23.46C214.48 23.46 213.954 23.6 213.46 23.88C212.98 24.1467 212.587 24.54 212.28 25.06C211.987 25.5667 211.84 26.18 211.84 26.9C211.84 27.62 211.987 28.24 212.28 28.76C212.587 29.2667 212.98 29.66 213.46 29.94C213.954 30.2067 214.48 30.34 215.04 30.34ZM226.95 36.64C226.057 36.64 225.283 36.4933 224.63 36.2C223.99 35.92 223.47 35.5533 223.07 35.1C222.67 34.66 222.383 34.2067 222.21 33.74L224.21 32.9C224.423 33.4333 224.763 33.8667 225.23 34.2C225.71 34.5467 226.283 34.72 226.95 34.72C227.883 34.72 228.617 34.44 229.15 33.88C229.697 33.32 229.97 32.5267 229.97 31.5V30.52H229.85C229.53 31 229.083 31.3867 228.51 31.68C227.95 31.96 227.31 32.1 226.59 32.1C225.723 32.1 224.93 31.88 224.21 31.44C223.49 31 222.91 30.3867 222.47 29.6C222.03 28.8 221.81 27.8667 221.81 26.8C221.81 25.72 222.03 24.7867 222.47 24C222.91 23.2 223.49 22.58 224.21 22.14C224.93 21.7 225.723 21.48 226.59 21.48C227.31 21.48 227.95 21.6267 228.51 21.92C229.083 22.2133 229.53 22.6 229.85 23.08H229.97V21.8H232.03V31.46C232.03 32.5667 231.81 33.5067 231.37 34.28C230.943 35.0533 230.35 35.64 229.59 36.04C228.83 36.44 227.95 36.64 226.95 36.64ZM226.97 30.14C227.503 30.14 227.997 30.0133 228.45 29.76C228.903 29.4933 229.27 29.1133 229.55 28.62C229.83 28.1133 229.97 27.5067 229.97 26.8C229.97 26.0667 229.83 25.4533 229.55 24.96C229.27 24.4533 228.903 24.0733 228.45 23.82C227.997 23.5667 227.503 23.44 226.97 23.44C226.437 23.44 225.937 23.5733 225.47 23.84C225.017 24.0933 224.65 24.4667 224.37 24.96C224.09 25.4533 223.95 26.0667 223.95 26.8C223.95 27.52 224.09 28.1333 224.37 28.64C224.65 29.1333 225.017 29.5067 225.47 29.76C225.937 30.0133 226.437 30.14 226.97 30.14ZM234.577 32V17.68H236.737V32H234.577ZM243.846 32.32C242.846 32.32 241.952 32.0867 241.166 31.62C240.379 31.1533 239.759 30.5133 239.306 29.7C238.866 28.8867 238.646 27.96 238.646 26.92C238.646 25.9467 238.859 25.0467 239.286 24.22C239.712 23.3933 240.306 22.7333 241.066 22.24C241.839 21.7333 242.726 21.48 243.726 21.48C244.779 21.48 245.672 21.7067 246.406 22.16C247.152 22.6133 247.719 23.2333 248.106 24.02C248.492 24.8067 248.686 25.6933 248.686 26.68C248.686 26.8267 248.679 26.96 248.666 27.08C248.666 27.2 248.659 27.2933 248.646 27.36H240.766C240.872 28.3733 241.226 29.1333 241.826 29.64C242.439 30.1467 243.132 30.4 243.906 30.4C244.599 30.4 245.172 30.2467 245.626 29.94C246.079 29.62 246.439 29.2267 246.706 28.76L248.486 29.62C248.046 30.42 247.446 31.0733 246.686 31.58C245.926 32.0733 244.979 32.32 243.846 32.32ZM243.746 23.32C243.026 23.32 242.412 23.54 241.906 23.98C241.399 24.42 241.059 25.0067 240.886 25.74H246.546C246.519 25.3933 246.406 25.0333 246.206 24.66C246.006 24.2867 245.699 23.9733 245.286 23.72C244.886 23.4533 244.372 23.32 243.746 23.32Z" fill="white"/>
<rect x="0.5" y="0.5" width="270" height="49" rx="24.5" stroke="#747775"/>
<defs>
<linearGradient id="paint0_linear_1819_24937" x1="34.5703" y1="30.7864" x2="18.7309" y2="48.9133" gradientUnits="userSpaceOnUse">
<stop stop-color="#4285F4"/>
<stop offset="1" stop-color="#1B74E8"/>
</linearGradient>
</defs>
</svg>
